X: 428
T: A Trip To The Cottage
R: jig
M: 6/8
K: Gmajor
|:Bc|ded BGB|cBc AGF|DGG FGA|BGB ABc|
ded BGB|cBc AGF|DGG FGA|1 BGG G:|2 BGG G2d||
|:gfe d^cd|edc Bcd|eAA dBG|FAG FED|
gfe d^cd|edc Bcd|efg eag|1 fdc d2d:|2 fdc d||

